P3
16 9
255
30 30 30 45 45 45 65 65 65 85 85 85 105 105 105 125 125 125 145 145 145 165 165 165 185 185 185 205 205 205 225 225 225 245 245 245 225 225 225 205 205 205 185 185 185 165 165 165
40 40 40 55 55 55 75 75 75 95 95 95 115 115 115 135 135 135 155 155 155 175 175 175 195 195 195 215 215 215 235 235 235 250 250 250 235 235 235 215 215 215 195 195 195 175 175 175
50 50 50 65 65 65 85 85 85 105 105 105 125 125 125 145 145 145 165 165 165 185 185 185 205 205 205 225 225 225 245 245 245 255 255 255 245 245 245 225 225 225 205 205 205 185 185 185
60 60 60 75 75 75 95 95 95 115 115 115 135 135 135 155 155 155 175 175 175 195 195 195 215 215 215 235 235 235 250 250 250 255 255 255 250 250 250 235 235 235 215 215 215 195 195 195
70 70 70 85 85 85 105 105 105 125 125 125 145 145 145 165 165 165 185 185 185 205 205 205 225 225 225 245 245 245 255 255 255 255 255 255 255 255 255 245 245 245 225 225 225 205 205 205
60 60 60 75 75 75 95 95 95 115 115 115 135 135 135 155 155 155 175 175 175 195 195 195 215 215 215 235 235 235 250 250 250 255 255 255 250 250 250 235 235 235 215 215 215 195 195 195
50 50 50 65 65 65 85 85 85 105 105 105 125 125 125 145 145 145 165 165 165 185 185 185 205 205 205 225 225 225 245 245 245 255 255 255 245 245 245 225 225 225 205 205 205 185 185 185
40 40 40 55 55 55 75 75 75 95 95 95 115 115 115 135 135 135 155 155 155 175 175 175 195 195 195 215 215 215 235 235 235 250 250 250 235 235 235 215 215 215 195 195 195 175 175 175
30 30 30 45 45 45 65 65 65 85 85 85 105 105 105 125 125 125 145 145 145 165 165 165 185 185 185 205 205 205 225 225 225 245 245 245 225 225 225 205 205 205 185 185 185 165 165 165
